site/images/demo.svg

<svg viewBox="0 0 101 101" xmlns="http://www.w3.org/2000/svg"><path d="m50.5 0a50.5 50.5 0 1 0 50.5 50.5 50.56 50.56 0 0 0 -50.5-50.5zm0 100a49.5 49.5 0 1 1 49.5-49.5 49.56 49.56 0 0 1 -49.5 49.5zm28.81-79-28.81 28.79-28.81-28.79-.71.71 28.81 28.79-28.79 28.81.71.71 28.79-28.81 28.81 28.79.71-.71-28.81-28.79 28.79-28.81z"/></svg>

<svg xmlns="http://www.w3.org/2000/svg" viewBox="0 0 101 101"><title>demo</title><g id="Layer_2" data-name="Layer 2"><g id="Graphics"><path d="M50.5,0A50.5,50.5,0,1,0,101,50.5,50.56,50.56,0,0,0,50.5,0Zm0,100A49.5,49.5,0,1,1,100,50.5,49.56,49.56,0,0,1,50.5,100ZM79.31,21,50.5,49.79,21.69,21l-.71.71L49.79,50.5,21,79.31l.71.71L50.5,51.21,79.31,80l.71-.71L51.21,50.5,80,21.69Z"/></g></g></svg>
